src/assets/filled/SecurityUser.svg

<svg width="24" height="24" viewBox="0 0 24 24"  xmlns="http://www.w3.org/2000/svg">
<path d="M18.4999 4.10982L13.5099 2.23982C12.6799 1.92982 11.3199 1.92982 10.4899 2.23982L5.49991 4.10982C4.34991 4.53982 3.40991 5.89982 3.40991 7.11982V14.5498C3.40991 15.7298 4.18991 17.2798 5.13991 17.9898L9.43991 21.1998C10.8499 22.2598 13.1699 22.2598 14.5799 21.1998L18.8799 17.9898C19.8299 17.2798 20.6099 15.7298 20.6099 14.5498V7.11982C20.5899 5.89982 19.6499 4.53982 18.4999 4.10982ZM11.9299 7.02982C13.1099 7.02982 14.0699 7.98982 14.0699 9.16982C14.0699 10.3298 13.1599 11.2598 12.0099 11.2998H11.9899H11.9699C11.9499 11.2998 11.9299 11.2998 11.9099 11.2998C10.7099 11.2598 9.80991 10.3298 9.80991 9.16982C9.79991 7.98982 10.7599 7.02982 11.9299 7.02982ZM14.1899 16.3598C13.5799 16.7598 12.7899 16.9698 11.9999 16.9698C11.2099 16.9698 10.4099 16.7698 9.80991 16.3598C9.23991 15.9798 8.92991 15.4598 8.91991 14.8898C8.91991 14.3298 9.23991 13.7898 9.80991 13.4098C11.0199 12.6098 12.9899 12.6098 14.1999 13.4098C14.7699 13.7898 15.0899 14.3098 15.0899 14.8798C15.0799 15.4398 14.7599 15.9798 14.1899 16.3598Z" />
</svg>

<?xml version="1.0" encoding="UTF-8"?>
<svg width="24" height="24" viewBox="0 0 24 24" xmlns="http://www.w3.org/2000/svg">
 <path d="m18.5 4.1098-4.99-1.87c-0.83-0.31-2.19-0.31-3.02 0l-4.99 1.87c-1.15 0.43-2.09 1.79-2.09 3.01v7.43c0 1.18 0.78 2.73 1.73 3.44l4.3 3.21c1.41 1.06 3.73 1.06 5.14 0l4.3-3.21c0.95-0.71 1.73-2.26 1.73-3.44v-7.43c-0.02-1.22-0.96-2.58-2.11-3.01zm-6.57 2.92c1.18 0 2.14 0.96 2.14 2.14 0 1.16-0.91 2.09-2.06 2.13h-0.04-0.06c-1.2-0.04-2.1-0.97-2.1-2.13-0.01-1.18 0.94999-2.14 2.12-2.14zm2.26 9.33c-0.61 0.4-1.4 0.61-2.19 0.61s-1.59-0.2-2.19-0.61c-0.57-0.38-0.88-0.9-0.89-1.47 0-0.56 0.32-1.1 0.89-1.48 1.21-0.8 3.18-0.8 4.39 0 0.57 0.38 0.89 0.9 0.89 1.47-0.01 0.56-0.33 1.1-0.9 1.48z"/>
</svg>
